icons/svg/seamark_big/landmark_dish_aerial.svg

<?xml version="1.0" encoding="UTF-8" standalone="no"?>
<svg
   xmlns:dc="http://purl.org/dc/elements/1.1/"
   xmlns:cc="http://creativecommons.org/ns#"
   xmlns:rdf="http://www.w3.org/1999/02/22-rdf-syntax-ns#"
   xmlns:svg="http://www.w3.org/2000/svg"
   xmlns="http://www.w3.org/2000/svg"
   xmlns:sodipodi="http://sodipodi.sourceforge.net/DTD/sodipodi-0.dtd"
   xmlns:inkscape="http://www.inkscape.org/namespaces/inkscape"
   width="1060"
   height="1060"
   id="svg2"
   version="1.1"
   inkscape:version="0.48.4 r9939"
   sodipodi:docname="landmark_dish_aerial.svg">
  <defs
     id="defs13">
    <inkscape:path-effect
       effect="gears"
       id="path-effect3774"
       is_visible="true"
       teeth="6"
       phi="-1.2" />
    <inkscape:path-effect
       effect="bend_path"
       id="path-effect3772"
       is_visible="false"
       bendpath="m 95.790098,316.51174 c 144.429032,-206.42506 223.313032,-11.7428 339.548092,0"
       prop_scale="1.19"
       scale_y_rel="false"
       vertical="false"
       bendpath-nodetypes="cc" />
  </defs>
  <sodipodi:namedview
     pagecolor="#ffffff"
     bordercolor="#666666"
     borderopacity="1"
     objecttolerance="10"
     gridtolerance="10"
     guidetolerance="10"
     inkscape:pageopacity="0"
     inkscape:pageshadow="2"
     inkscape:window-width="1920"
     inkscape:window-height="1004"
     id="namedview11"
     showgrid="false"
     inkscape:zoom="0.8137931"
     inkscape:cx="588.79132"
     inkscape:cy="492.0305"
     inkscape:window-x="1680"
     inkscape:window-y="0"
     inkscape:window-maximized="1"
     inkscape:current-layer="svg2"
     inkscape:snap-object-midpoints="true"
     inkscape:snap-center="true" />
  <metadata
     id="metadata2975">image/svg+xmlen<rdf:RDF>
  <cc:Work
     rdf:about="">
    <dc:format>image/svg+xml</dc:format>
    <dc:type
       rdf:resource="http://purl.org/dc/dcmitype/StillImage" />
    <dc:title></dc:title>
  </cc:Work>
</rdf:RDF>
</metadata>
  <path
     style="font-size:medium;font-style:normal;font-variant:normal;font-weight:normal;font-stretch:normal;text-indent:0;text-align:start;text-decoration:none;line-height:normal;letter-spacing:normal;word-spacing:normal;text-transform:none;direction:ltr;block-progression:tb;writing-mode:lr-tb;text-anchor:start;baseline-shift:baseline;opacity:0.372;color:#000000;fill:#e4e4e4;fill-opacity:1;fill-rule:nonzero;stroke:#a35151;stroke-width:0;stroke-linecap:round;stroke-linejoin:miter;stroke-miterlimit:4;stroke-opacity:1;stroke-dashoffset:0;marker:none;visibility:visible;display:inline;overflow:visible;enable-background:accumulate;font-family:Sans;-inkscape-font-specification:Sans"
     d="m 497.5,209.375 c -9.09096,0.0181 -18.12869,3.58535 -24.78125,9.78125 l -8.0625,7.5 c -70.57985,65.67284 -80.96183,178.72405 -31.75,274.9375 4.7498,9.28627 10.07554,18.05449 15.65625,26.53125 l -20.25,159.3125 -12.65625,0 c -9.54761,-4.3e-4 -19.0366,3.92978 -25.78778,10.68097 -6.75119,6.75118 -10.6814,16.24017 -10.68097,25.78778 l 0,23.0625 c -4.3e-4,9.54761 3.92978,19.0366 10.68097,25.78778 6.75118,6.75119 16.24017,10.6814 25.78778,10.68097 l 24.8125,0 c 15.27486,21.84373 40.55012,36.125 68.9375,36.125 28.39333,0 53.68512,-14.27301 68.96875,-36.125 l 24.8125,0 c 9.54761,4.3e-4 19.0366,-3.92978 25.78778,-10.68097 6.75119,-6.75118 10.6814,-16.24017 10.68097,-25.78778 l 0,-23.0625 c 4.3e-4,-9.54761 -3.92978,-19.0366 -10.68097,-25.78778 -6.75118,-6.75119 -16.24017,-10.6814 -25.78778,-10.68097 l -8.84375,0 -4.53125,-53.90625 c 27.60253,7.20654 56.31283,8.8082 84.59375,3.1875 0.0208,2e-5 0.0417,2e-5 0.0625,0 L 685.25,634.5625 c 10.99675,-2.20321 20.78349,-9.78387 25.66607,-19.88056 4.88257,-10.09669 4.74776,-22.47524 -0.35357,-32.46319 l -5,-9.78125 -53.15625,-103.9375 2.28125,-4.03125 c 32.7405,0.15218 63.18002,-21.73315 71.9375,-54.6875 10.3881,-39.09046 -13.28012,-79.9232 -52.375,-90.3125 -28.98582,-7.70284 -58.89175,3.3733 -76.65625,25.53125 l -8.46875,-0.1875 -54.09375,-105.78125 -5,-9.78125 c -3.04191,-5.95361 -7.75654,-11.04128 -13.46174,-14.52688 -5.7052,-3.48559 -12.38381,-5.35864 -19.06951,-5.34812 z"
     id="path3885"
     inkscape:connector-curvature="0"
     sodipodi:nodetypes="cccscccsccsccsccsccsccccccsccccssccccsc" />
  <path
     sodipodi:type="arc"
     style="color:#000000;fill:none;stroke:#000000;stroke-width:30.33652288;stroke-linecap:butt;stroke-linejoin:miter;stroke-miterlimit:4;stroke-opacity:1;stroke-dasharray:none;stroke-dashoffset:0;marker:none;visibility:visible;display:inline;overflow:visible;enable-background:accumulate"
     id="path2985"
     sodipodi:cx="510.26483"
     sodipodi:cy="737.74365"
     sodipodi:rx="69.120766"
     sodipodi:ry="69.120766"
     d="m 579.3856,737.74365 a 69.120766,69.120766 0 1 1 -138.24153,0 69.120766,69.120766 0 1 1 138.24153,0 z"
     transform="matrix(0.56558888,0,0,0.56558888,221.05031,318.17685)" />
  <path
     style="font-size:medium;font-style:normal;font-variant:normal;font-weight:normal;font-stretch:normal;text-indent:0;text-align:start;text-decoration:none;line-height:normal;letter-spacing:normal;word-spacing:normal;text-transform:none;direction:ltr;block-progression:tb;writing-mode:lr-tb;text-anchor:start;baseline-shift:baseline;color:#000000;fill:#000000;fill-opacity:1;stroke:none;stroke-width:30.00000191;marker:none;visibility:visible;display:inline;overflow:visible;enable-background:accumulate;font-family:Sans;-inkscape-font-specification:Sans"
     d="m 415.88872,723.91311 0,23.04878 59.24176,0 0,-23.04878 z m 128.26205,0 0,23.04878 59.24176,0 0,-23.04878 z"
     id="path3754"
     inkscape:connector-curvature="0"
     sodipodi:nodetypes="cccccccccc" />
  <rect
     style="fill:none"
     y="209.23727"
     x="249.02544"
     width="487.45749"
     height="487.45749"
     id="rect3" />
  <rect
     style="fill:none"
     y="209.23727"
     x="249.02544"
     width="487.45749"
     height="487.45749"
     id="rect3-8" />
  <path
     style="fill:none;stroke:#000000;stroke-width:17.31599998;stroke-linecap:round;stroke-linejoin:round;stroke-miterlimit:10;stroke-dasharray:none"
     d="M 552.50865,725.83546 538.65069,561.29416"
     id="line3"
     inkscape:connector-curvature="0"
     sodipodi:nodetypes="cc" />
  <path
     style="fill:none;stroke:#000000;stroke-width:17.31599998;stroke-linecap:round;stroke-linejoin:round;stroke-miterlimit:10;stroke-dasharray:none"
     d="M 495.38759,519.10976 468.70012,728.90749"
     id="line5"
     inkscape:connector-curvature="0"
     sodipodi:nodetypes="cc" />
  <path
     style="color:#000000;fill:none;stroke:#000000;stroke-width:16.6;stroke-linecap:round;stroke-linejoin:miter;stroke-miterlimit:4;stroke-opacity:1;stroke-dasharray:none;stroke-dashoffset:0;marker:none;visibility:visible;display:inline;overflow:visible;enable-background:accumulate"
     d="m 495.38692,259.41671 c -52.74292,49.07601 -63.93898,140.59894 -22.40532,221.8009 41.53367,81.20198 122.27918,125.65435 192.94068,111.61072 L 495.38692,259.41671 z"
     id="path2995"
     inkscape:connector-curvature="0" />
  <circle
     transform="matrix(8.1883577,2.1760188,-2.1760188,8.1883577,454.2125,175.13756)"
     sodipodi:ry="3.5"
     sodipodi:rx="3.5"
     sodipodi:cy="18.5"
     sodipodi:cx="29.5"
     style="fill:none;stroke:#000000;stroke-width:1.81114107;stroke-linecap:round;stroke-linejoin:round;stroke-miterlimit:10;stroke-dasharray:none"
     cx="29.5"
     cy="18.5"
     r="3.5"
     id="circle7" />
  <line
     style="fill:none;stroke:#000000;stroke-width:15.345;stroke-linecap:round;stroke-linejoin:round;stroke-miterlimit:10;stroke-dasharray:none"
     x1="634.24579"
     y1="411.46304"
     x2="606.18134"
     y2="460.9881"
     id="line11" />
  <line
     style="fill:none;stroke:#000000;stroke-width:15.345;stroke-linecap:round;stroke-linejoin:round;stroke-miterlimit:10;stroke-dasharray:none"
     x1="564.09491"
     y1="388.43744"
     x2="625.11273"
     y2="389.74927"
     id="line13" />
</svg>

<svg width="1060" height="1060" viewBox="0 0 1060 1060" fill="none" xmlns="http://www.w3.org/2000/svg">
<path opacity="0.372" d="M497.5 209.375C488.409 209.393 479.371 212.96 472.719 219.156L464.656 226.656C394.076 292.329 383.694 405.38 432.906 501.594C437.656 510.88 442.982 519.648 448.562 528.125L428.312 687.438H415.656C406.109 687.437 396.62 691.367 389.868 698.118C383.117 704.87 379.187 714.359 379.188 723.906V746.969C379.187 756.516 383.117 766.005 389.868 772.757C396.62 779.508 406.109 783.438 415.656 783.438H440.469C455.744 805.281 481.019 819.563 509.406 819.563C537.8 819.563 563.091 805.29 578.375 783.438H603.188C612.735 783.438 622.224 779.508 628.975 772.757C635.726 766.005 639.657 756.516 639.656 746.969V723.906C639.657 714.359 635.726 704.87 628.975 698.118C622.224 691.367 612.735 687.437 603.188 687.438H594.344L589.812 633.531C617.415 640.738 646.125 642.339 674.406 636.719C674.427 636.719 674.448 636.719 674.469 636.719L685.25 634.563C696.247 632.359 706.033 624.779 710.916 614.682C715.799 604.585 715.664 592.207 710.562 582.219L705.562 572.438L652.406 468.5L654.688 464.469C687.428 464.621 717.868 442.736 726.625 409.781C737.013 370.691 713.345 329.858 674.25 319.469C645.264 311.766 615.358 322.842 597.594 345L589.125 344.813L535.031 239.031L530.031 229.25C526.989 223.296 522.275 218.209 516.57 214.723C510.864 211.238 504.186 209.365 497.5 209.375V209.375Z" fill="#E4E4E4"/>
<path d="M548.744 735.437C548.745 740.571 547.735 745.655 545.77 750.399C543.806 755.143 540.927 759.453 537.296 763.084C533.666 766.715 529.356 769.596 524.613 771.561C519.869 773.526 514.785 774.537 509.65 774.537C504.516 774.537 499.432 773.526 494.688 771.561C489.945 769.596 485.635 766.715 482.005 763.084C478.374 759.453 475.495 755.143 473.53 750.399C471.566 745.655 470.556 740.571 470.557 735.437C470.556 730.302 471.566 725.218 473.53 720.474C475.495 715.73 478.374 711.42 482.005 707.789C485.635 704.158 489.945 701.277 494.688 699.312C499.432 697.347 504.516 696.336 509.65 696.336C514.785 696.336 519.869 697.347 524.613 699.312C529.356 701.277 533.666 704.158 537.296 707.789C540.927 711.42 543.806 715.73 545.77 720.474C547.735 725.218 548.745 730.302 548.744 735.437Z" stroke="black" stroke-width="17.158"/>
<path d="M415.889 723.913V746.962H475.13V723.913H415.889ZM544.151 723.913V746.962H603.393V723.913H544.151Z" fill="black"/>
<path d="M552.509 725.835L538.651 561.294" stroke="black" stroke-width="17.316" stroke-miterlimit="10" stroke-linecap="round" stroke-linejoin="round"/>
<path d="M495.388 519.11L468.7 728.907" stroke="black" stroke-width="17.316" stroke-miterlimit="10" stroke-linecap="round" stroke-linejoin="round"/>
<path d="M495.387 259.417C442.644 308.493 431.448 400.016 472.982 481.218C514.515 562.42 595.261 606.872 665.922 592.828L495.387 259.417Z" stroke="black" stroke-width="16.6" stroke-linecap="round"/>
<path d="M647.897 419.474C663.725 423.68 679.966 414.259 684.172 398.431C688.378 382.603 678.957 366.362 663.129 362.155C647.301 357.949 631.06 367.371 626.853 383.199C622.647 399.027 632.069 415.268 647.897 419.474Z" stroke="black" stroke-width="15.345" stroke-miterlimit="10" stroke-linecap="round" stroke-linejoin="round"/>
<path d="M634.246 411.463L606.181 460.988" stroke="black" stroke-width="15.345" stroke-miterlimit="10" stroke-linecap="round" stroke-linejoin="round"/>
<path d="M564.095 388.438L625.113 389.749" stroke="black" stroke-width="15.345" stroke-miterlimit="10" stroke-linecap="round" stroke-linejoin="round"/>
</svg>
